**kern	**kern	**dynam
*part1	*part1	*part1
*staff2	*staff1	*
*I"Piano	*	*
*clefF4	*clefG2	*
*k[f#c#]	*k[f#c#]	*
=1	=1	=1
4F#	8r	.
.	8AL 8c# 8f#	.
8r	8AJ 8c# 8f#	.
=	=	=
4BB	8r	.
.	8F#L 8B 8d	.
8r	8F#J 8B 8d	.
=	=	=
4BB	8r	.
.	8F#L 8B 8d	.
8r	8F#J 8B 8d	.
=	=	=
!	!	!LO:DY:a
8FF#L	8r	p
(8C#' 8F#	(8A#X'L 8c# 8f#	.
8C#'J) 8F#	8A#'J) 8c# 8f#	.
=	=	=
8FF#L	8r	.
(8C#' 8F#	(8A#X'L 8c# 8f#	.
8C#'J) 8F#	8A#'J) 8c# 8f#	.
=	=	=
8FF#L	8r	.
(8D#X' 8G#X	(8B'L 8d#X 8g#X	.
8D#'J) 8G#	8B'J) 8d# 8g#	.
=	=	=
8FF#L	8r	.
(8D#X' 8G#X	(8B'L 8d#X 8g#X	.
8D#'J) 8G#	8B'J) 8d# 8g#	.
=	=	=
*-	*-	*-
!!!system-decoration: {(s1,s2)}
